;FLAVOR:Marlin
;TIME:7525
;Filament used: 4.87293m
;Layer height: 0.2
;MINX:97.901
;MINY:97.929
;MINZ:0.2
;MAXX:137.099
;MAXY:137.935
;MAXZ:27.4
;ZOFFSETPROCESSED
;Generated with Cura_SteamEngine 4.6.2
M140 S80
M105
M190 S80
M104 S215
M105
M109 S215
M82 ;absolute extrusion mode
; Ender 3 Custom Start G-code
G92 E0 ; Reset Extruder
G28 ; Home all axes
G1 Z2.0 F3000 ; Move Z Axis up little to prevent scratching of Heat Bed
G1 X0.1 Y20 Z0.3 F5000.0 ; Move to start position
G1 X0.1 Y200.0 Z0.3 F1500.0 E15 ; Draw the first line
G1 X0.4 Y200.0 Z0.3 F5000.0 ; Move to side a little
G1 X0.4 Y20 Z0.3 F1500.0 E30 ; Draw the second line
G92 E0 ; Reset Extruder
G1 Z2.0 F3000 ; Move Z Axis up little to prevent scratching of Heat Bed
G1 X5 Y20 Z0.3 F5000.0 ; Move over to prevent blob squish
G92 E0
G92 E0
G1 F3000 E-2
;LAYER_COUNT:137
;LAYER:0
M107
;MESH:chuck_hexinsert_v1.STL
G0 F6000 X117.15 Y125.194 Z0.1 ;adjusted by z offset
G92 Z0.2 ;consider this the original z before offset
;TYPE:WALL-INNER
G1 F3000 E0
G1 F1200 X117.371 Y125.194 E0.00735
G1 X117.476 Y125.186 E0.01085
G1 X118.439 Y125.143 E0.04291
G1 X118.592 Y125.121 E0.04806
G1 X119.756 Y124.866 E0.08769
G1 X120.011 Y124.767 E0.09679
G1 X120.901 Y124.409 E0.12869
G1 X121.143 Y124.277 E0.13786
G1 X121.962 Y123.774 E0.16983
G1 X122.205 Y123.596 E0.17985
G1 X122.341 Y123.466 E0.1861
G1 X123.063 Y122.832 E0.21806
G1 X123.87 Y121.832 E0.2608
G1 X124.011 Y121.592 E0.27006
G1 X124.509 Y120.692 E0.30427
G1 X124.591 Y120.488 E0.31158
G1 X124.942 Y119.477 E0.34718
G1 X124.988 Y119.291 E0.35355
G1 X125.012 Y119.109 E0.35966
G1 X125.177 Y118.155 E0.39186
G1 X125.179 Y116.894 E0.4338
G1 X125.142 Y116.623 E0.4429
G1 X125.14 Y116.609 E0.44337
G1 X125.137 Y116.587 E0.44411
G1 X125.179 Y116.587
G1 X125.293 Y116.587 E0.44641
G1 X125.278 Y116.541
G1 X124.89 Y115.358 E0.48781
G1 X124.847 Y115.248 E0.49174
G1 X124.535 Y114.368 E0.5228
G1 X124.467 Y114.223 E0.52812
G1 X123.881 Y113.186 E0.56774
G1 X123.107 Y112.22 E0.60891
G1 X122.904 Y112.025 E0.61827
G1 X122.105 Y111.328 E0.65354
G1 X121.933 Y111.206 E0.66055
G1 X121.778 Y111.119 E0.66646
G1 X120.968 Y110.622 E0.69807
G1 X119.773 Y110.14 E0.74093
G1 X119.744 Y110.134 E0.74191
G1 X119.501 Y110.076 E0.75022
G1 X118.503 Y109.865 E0.78415
G1 X118.281 Y109.845 E0.79156
G1 X117.328 Y109.805 E0.82329
G1 X117.04 Y109.815 E0.83287
G1 X115.877 Y109.97 E0.8719
G1 X114.668 Y110.338 E0.91393
G1 X114.414 Y110.455 E0.92323
G1 X113.486 Y110.927 E0.95786
G1 X113.288 Y111.059 E0.96577
G1 X113.186 Y111.142 E0.97015
G1 X112.442 Y111.693 E1.00094
G1 X112.313 Y111.812 E1.00678
G1 X112.118 Y112.025 E1.01638
G1 X111.507 Y112.659 E1.04567
G1 X110.805 Y113.69 E1.08715
G1 X110.678 Y113.941 E1.09651
G1 X110.247 Y114.911 E1.13181
G1 X110.185 Y115.109 E1.13871
G1 X110.153 Y115.246 E1.14339
G1 X109.905 Y116.197 E1.17608
G1 X109.796 Y117.493 E1.21934
G1 X109.816 Y117.767 E1.22848
G1 X109.895 Y118.723 E1.26038
G1 X109.951 Y118.996 E1.26965
G1 X110.193 Y119.922 E1.30148
G1 X110.292 Y120.207 E1.31152
G1 X110.371 Y120.365 E1.31739
G1 X110.773 Y121.256 E1.34991
G1 X111.487 Y122.315 E1.39239
G1 X111.675 Y122.522 E1.40169
G1 X112.397 Y123.269 E1.43624
G1 X112.562 Y123.4 E1.44325
G1 X113.32 Y123.964 E1.47467
G1 X113.568 Y124.121 E1.48443
G1 X113.759 Y124.211 E1.49146
G1 X114.626 Y124.647 E1.52373
G1 X115.825 Y125.018 E1.56548
G1 X116.101 Y125.065 E1.57479
G1 X117.15 Y125.194 E1.60994
G0 F6000 X117.175 Y124.794
G1 F1200 X117.355 Y124.794 E1.61593
G1 X117.458 Y124.786 E1.61937
G1 X118.402 Y124.744 E1.6508
G1 X118.521 Y124.727 E1.65479
G1 X119.64 Y124.482 E1.69289
G1 X119.864 Y124.395 E1.70089
G1 X120.73 Y124.047 E1.73193
G1 X120.942 Y123.931 E1.73997
G1 X121.739 Y123.442 E1.77107
G1 X121.947 Y123.289 E1.77965
G1 X122.064 Y123.177 E1.78504
G1 X122.773 Y122.554 E1.81643
G1 X123.54 Y121.604 E1.85704
G1 X123.663 Y121.394 E1.86514
G1 X124.147 Y120.52 E1.89837
G1 X124.216 Y120.348 E1.90453
G1 X124.558 Y119.363 E1.93921
G1 X124.594 Y119.217 E1.94421
G1 X124.615 Y119.057 E1.94958
G1 X124.777 Y118.12 E1.98121
G1 X124.779 Y116.92 E2.02112
G1 X124.747 Y116.677 E2.02927
G1 X124.663 Y116.201 E2.04535
G1 X124.66 Y116.187 E2.04582
G1 X124.741 Y116.187 E2.04724
G1 X124.734 Y116.164
G1 X124.514 Y115.494 E2.0707
G1 X124.475 Y115.396 E2.07421
G1 X124.164 Y114.52 E2.10512
G1 X124.111 Y114.406 E2.1093
G1 X123.549 Y113.411 E2.14731
G1 X122.811 Y112.49 E2.18657
G1 X122.634 Y112.32 E2.19473
G1 X121.858 Y111.643 E2.22898
G1 X121.719 Y111.545 E2.23464
G1 X121.582 Y111.468 E2.23986
G1 X120.787 Y110.98 E2.27089
G1 X119.652 Y110.522 E2.3116
G1 X119.414 Y110.466 E2.31973
G1 X118.443 Y110.261 E2.35274
G1 X118.255 Y110.244 E2.35902
G1 X117.327 Y110.205 E2.38991
G1 X117.074 Y110.214 E2.39833
G1 X115.962 Y110.362 E2.43564
G1 X114.81 Y110.713 E2.47569
G1 X114.588 Y110.815 E2.48382
G1 X113.688 Y111.273 E2.51741
G1 X113.526 Y111.381 E2.52388
G1 X113.424 Y111.464 E2.52826
G1 X112.697 Y112.002 E2.55834
G1 X112.596 Y112.095 E2.5629
G1 X112.408 Y112.3 E2.57216
G1 X111.819 Y112.912 E2.60041
G1 X111.15 Y113.894 E2.63993
G1 X111.039 Y114.113 E2.64809
G1 X110.622 Y115.052 E2.68227
G1 X110.571 Y115.215 E2.68795
G1 X110.54 Y115.347 E2.69246
G1 X110.301 Y116.265 E2.72401
G1 X110.197 Y117.495 E2.76506
G1 X110.215 Y117.736 E2.7731
G1 X110.292 Y118.666 E2.80414
G1 X110.341 Y118.905 E2.81225
G1 X110.576 Y119.806 E2.84322
G1 X110.661 Y120.051 E2.85185
G1 X110.736 Y120.201 E2.85743
G1 X111.124 Y121.061 E2.88881
G1 X111.803 Y122.068 E2.9292
G1 X111.967 Y122.249 E2.93733
G1 X112.666 Y122.972 E2.97077
G1 X112.806 Y123.083 E2.97672
G1 X113.547 Y123.634 E3.00743
G1 X113.761 Y123.77 E3.01586
G1 X113.929 Y123.849 E3.02204
G1 X114.776 Y124.275 E3.05357
G1 X115.918 Y124.628 E3.09333
G1 X116.159 Y124.669 E3.10146
G1 X117.175 Y124.794 E3.13551
G0 F6000 X117.2 Y124.394
;TYPE:WALL-OUTER
G1 F1200 X117.338 Y124.394 E3.1401
G1 X117.432 Y124.386 E3.14323
G1 X118.365 Y124.345 E3.17429
G1 X118.45 Y124.333 E3.17715
G1 X119.524 Y124.098 E3.21372
G1 X119.717 Y124.023 E3.2206
G1 X120.559 Y123.685 E3.25078
G1 X120.741 Y123.585 E3.25769
G1 X121.515 Y123.11 E3.28789
G1 X121.689 Y122.982 E3.29508
G1 X121.8 Y122.876 E3.30018
G1 X122.483 Y122.276 E3.33042
G1 X123.21 Y121.376 E3.3689
G1 X123.316 Y121.196 E3.37585
G1 X123.785 Y120.349 E3.40805
G1 X123.841 Y120.208 E3.41309
G1 X124.174 Y119.25 E3.44683
G1 X124.2 Y119.143 E3.45049
G1 X124.221 Y118.989 E3.45566
G1 X124.377 Y118.085 E3.48617
G1 X124.379 Y116.946 E3.52405
G1 X124.352 Y116.738 E3.53103
G1 X124.183 Y115.787 E3.56316
G1 X124.189 Y115.787 E3.56336
G1 X124.138 Y115.631 E3.56881
G1 X124.098 Y115.531 E3.5724
G1 X123.793 Y114.671 E3.60275
G1 X123.755 Y114.589 E3.60575
G1 X123.217 Y113.636 E3.64215
G1 X122.515 Y112.76 E3.67949
G1 X122.364 Y112.615 E3.68645
G1 X121.611 Y111.958 E3.71969
G1 X121.506 Y111.884 E3.72396
G1 X121.373 Y111.81 E3.72902
G1 X120.606 Y111.338 E3.75898
G1 X119.53 Y110.904 E3.79757
G1 X119.327 Y110.856 E3.8045
G1 X118.384 Y110.657 E3.83656
G1 X118.229 Y110.643 E3.84174
G1 X117.326 Y110.605 E3.8718
G1 X117.111 Y110.613 E3.87895
G1 X116.945 Y110.638 E3.88454
G1 X116.047 Y110.754 E3.91465
G1 X114.952 Y111.088 E3.95273
G1 X114.762 Y111.175 E3.95968
G1 X113.89 Y111.619 E3.99222
G1 X113.764 Y111.703 E3.99726
G1 X113.677 Y111.774 E4.001
G1 X112.952 Y112.311 E4.031
G1 X112.879 Y112.378 E4.0343
G1 X112.703 Y112.57 E4.04296
G1 X112.131 Y113.165 E4.07041
G1 X111.495 Y114.097 E4.10794
G1 X111.401 Y114.284 E4.1149
G1 X110.997 Y115.193 E4.14799
G1 X110.957 Y115.321 E4.15245
G1 X110.927 Y115.448 E4.15679
G1 X110.697 Y116.333 E4.1872
G1 X110.598 Y117.497 E4.22606
G1 X110.614 Y117.704 E4.23296
G1 X110.689 Y118.609 E4.26317
G1 X110.731 Y118.814 E4.27013
G1 X110.959 Y119.69 E4.30023
G1 X111.03 Y119.895 E4.30745
G1 X111.101 Y120.037 E4.31273
G1 X111.475 Y120.866 E4.34298
G1 X112.118 Y121.82 E4.38124
G1 X112.259 Y121.975 E4.38821
G1 X112.936 Y122.675 E4.4206
G1 X113.05 Y122.766 E4.42545
G1 X113.774 Y123.304 E4.45545
G1 X113.955 Y123.419 E4.46259
G1 X114.109 Y123.492 E4.46825
G1 X114.926 Y123.903 E4.49867
G1 X116.011 Y124.238 E4.53644
G1 X116.217 Y124.273 E4.54339
G1 X117.2 Y124.394 E4.57633
G0 F6000 X117.174 Y124.833
G1 F3000 E2.57633
G0 F6000 X117.138 Y125.385
G0 X117.253 Y123.53
G0 X117.151 Y137.934
G0 X117.148 Y136.061
G0 X116.498 Y136.271
;TYPE:WALL-INNER
G1 F3000 E4.57633
G1 F1200 X114.459 Y136.051 E4.64454
G1 X112.482 Y135.616 E4.71187
G1 X110.537 Y134.964 E4.7801
G1 X108.706 Y134.116 E4.84721
G1 X106.966 Y133.069 E4.91475
G1 X105.331 Y131.828 E4.98303
G1 X103.863 Y130.438 E5.05027
G1 X102.533 Y128.874 E5.11855
G1 X101.398 Y127.202 E5.18576
G1 X100.449 Y125.412 E5.25315
G1 X99.687 Y123.499 E5.32164
G1 X99.144 Y121.544 E5.38912
G1 X98.812 Y119.532 E5.45695
G1 X98.703 Y117.507 E5.5244
G1 X98.81 Y115.469 E5.59227
G1 X99.14 Y113.466 E5.65979
G1 X99.681 Y111.513 E5.7272
G1 X100.44 Y109.604 E5.79552
G1 X101.388 Y107.817 E5.86281
G1 X102.525 Y106.137 E5.93028
G1 X103.852 Y104.573 E5.9985
G1 X105.319 Y103.181 E6.06576
G1 X106.95 Y101.943 E6.13386
G1 X108.692 Y100.892 E6.20153
G1 X110.517 Y100.046 E6.26844
G1 X112.471 Y99.389 E6.337
G1 X114.441 Y98.954 E6.4041
G1 X116.484 Y98.731 E6.47246
G1 X118.502 Y98.729 E6.53958
G1 X120.541 Y98.949 E6.60779
G1 X122.518 Y99.384 E6.67511
G1 X124.463 Y100.036 E6.74334
G1 X126.294 Y100.884 E6.81046
G1 X128.034 Y101.931 E6.878
G1 X129.669 Y103.172 E6.94627
G1 X131.135 Y104.56 E7.01342
G1 X132.466 Y106.124 E7.08172
G1 X133.594 Y107.787 E7.14856
G1 X134.552 Y109.591 E7.21649
G1 X135.313 Y111.5 E7.28485
G1 X135.856 Y113.455 E7.35233
G1 X136.187 Y115.457 E7.41982
G1 X136.297 Y117.486 E7.48741
G1 X136.191 Y119.517 E7.55505
G1 X135.862 Y121.532 E7.62296
G1 X135.323 Y123.477 E7.69009
G1 X134.56 Y125.396 E7.75877
G1 X133.612 Y127.183 E7.82605
G1 X132.479 Y128.857 E7.89328
G1 X131.148 Y130.427 E7.96174
G1 X129.683 Y131.817 E8.02891
G1 X128.051 Y133.056 E8.09706
G1 X126.31 Y134.106 E8.16468
G1 X124.483 Y134.954 E8.23168
G1 X122.529 Y135.611 E8.30024
G1 X120.559 Y136.046 E8.36734
G1 X118.516 Y136.269 E8.4357
G1 X116.498 Y136.271 E8.50282
G0 F6000 X116.474 Y136.671
G1 F1200 X114.394 Y136.447 E8.5724
G1 X112.381 Y136.004 E8.64095
G1 X110.387 Y135.335 E8.71091
G1 X108.517 Y134.469 E8.77945
G1 X106.739 Y133.399 E8.84847
G1 X105.077 Y132.138 E8.91786
G1 X103.569 Y130.71 E8.98693
G1 X102.214 Y129.116 E9.05652
G1 X101.059 Y127.415 E9.1249
G1 X100.082 Y125.573 E9.19425
G1 X99.31 Y123.634 E9.26367
G1 X99.303 Y123.607 E9.26459
G1 X98.751 Y121.624 E9.33306
G1 X98.415 Y119.582 E9.40189
G1 X98.414 Y119.554 E9.40282
G1 X98.305 Y117.529 E9.47027
G1 X98.303 Y117.508 E9.47097
G1 X98.413 Y115.419 E9.54055
G1 X98.747 Y113.386 E9.60907
G1 X99.303 Y111.381 E9.67827
G1 X100.073 Y109.443 E9.74763
G1 X101.046 Y107.609 E9.81668
G1 X102.209 Y105.891 E9.88569
G1 X103.558 Y104.301 E9.95504
G1 X105.065 Y102.871 E10.02414
G1 X106.727 Y101.61 E10.09353
G1 X108.499 Y100.541 E10.16236
G1 X110.369 Y99.674 E10.23091
G1 X112.367 Y99.002 E10.30102
G1 X114.376 Y98.558 E10.36946
G1 X116.459 Y98.331 E10.43915
G1 X118.526 Y98.329 E10.5079
G1 X120.606 Y98.553 E10.57748
G1 X122.619 Y98.996 E10.64603
G1 X124.613 Y99.665 E10.71599
G1 X126.483 Y100.531 E10.78453
G1 X128.261 Y101.601 E10.85355
G1 X129.923 Y102.862 E10.92294
G1 X131.429 Y104.288 E10.99192
G1 X132.785 Y105.882 E11.06152
G1 X133.936 Y107.578 E11.1297
G1 X134.919 Y109.43 E11.19943
G1 X135.69 Y111.365 E11.26871
G1 X135.697 Y111.392 E11.26964
G1 X136.249 Y113.375 E11.3381
G1 X136.584 Y115.407 E11.4066
G1 X136.585 Y115.435 E11.40753
G1 X136.695 Y117.464 E11.47511
G1 X136.697 Y117.487 E11.47588
G1 X136.588 Y119.567 E11.54516
G1 X136.254 Y121.613 E11.61411
G1 X135.699 Y123.615 E11.68321
G1 X134.927 Y125.557 E11.75272
G1 X133.954 Y127.391 E11.82177
G1 X132.792 Y129.107 E11.8907
G1 X131.442 Y130.699 E11.96012
G1 X129.937 Y132.127 E12.02912
G1 X128.273 Y133.39 E12.09861
G1 X126.502 Y134.458 E12.16739
G1 X124.631 Y135.326 E12.23599
G1 X122.633 Y135.998 E12.3061
G1 X120.624 Y136.442 E12.37454
G1 X118.541 Y136.669 E12.44423
G1 X116.474 Y136.671 E12.51298
G0 F6000 X116.45 Y137.071
;TYPE:WALL-OUTER
G1 F1200 X114.329 Y136.843 E12.58393
G1 X112.28 Y136.392 E12.65371
G1 X110.237 Y135.706 E12.72539
G1 X108.328 Y134.822 E12.79536
G1 X106.512 Y133.729 E12.86585
G1 X104.823 Y132.448 E12.93636
G1 X103.275 Y130.982 E13.00727
G1 X101.895 Y129.358 E13.07815
G1 X100.72 Y127.628 E13.14771
G1 X99.715 Y125.734 E13.21902
G1 X98.933 Y123.77 E13.28933
G1 X98.358 Y121.704 E13.36066
G1 X98.018 Y119.632 E13.4305
G1 X97.903 Y117.509 E13.50121
G1 X98.016 Y115.369 E13.57249
G1 X98.354 Y113.306 E13.64202
G1 X98.924 Y111.251 E13.71295
G1 X99.706 Y109.282 E13.78341
G1 X100.704 Y107.401 E13.85424
G1 X101.893 Y105.645 E13.92477
G1 X103.264 Y104.029 E13.99526
G1 X104.809 Y102.563 E14.06609
G1 X106.497 Y101.282 E14.13657
G1 X108.312 Y100.187 E14.20708
G1 X110.221 Y99.302 E14.27706
G1 X112.263 Y98.615 E14.34872
G1 X114.311 Y98.162 E14.41848
G1 X116.434 Y97.931 E14.48951
G1 X118.55 Y97.929 E14.55989
G1 X120.671 Y98.157 E14.63084
G1 X122.72 Y98.608 E14.70062
G1 X124.763 Y99.294 E14.7723
G1 X126.672 Y100.178 E14.84227
G1 X128.488 Y101.271 E14.91277
G1 X130.177 Y102.552 E14.98327
G1 X131.725 Y104.018 E15.05418
G1 X133.104 Y105.64 E15.12499
G1 X134.278 Y107.369 E15.19451
G1 X135.285 Y109.266 E15.26594
G1 X136.067 Y111.23 E15.33625
G1 X136.642 Y113.295 E15.40754
G1 X136.981 Y115.357 E15.47705
G1 X137.097 Y117.491 E15.54813
G1 X136.985 Y119.617 E15.61894
G1 X136.646 Y121.694 E15.68893
G1 X136.076 Y123.749 E15.75986
G1 X135.294 Y125.718 E15.83033
G1 X134.296 Y127.599 E15.90115
G1 X133.108 Y129.353 E15.97161
G1 X131.736 Y130.971 E16.04217
G1 X130.191 Y132.437 E16.11301
G1 X128.503 Y133.718 E16.18349
G1 X126.688 Y134.813 E16.25399
G1 X124.779 Y135.698 E16.32397
G1 X122.737 Y136.385 E16.39563
G1 X120.689 Y136.838 E16.4654
G1 X118.566 Y137.069 E16.53642
G1 X116.45 Y137.071 E16.6068
G0 F6000 X116.473 Y136.632
G0 X116.521 Y135.881
;TYPE:SKIN
G1 F1200 X114.521 Y135.666 E16.67371
G1 X112.587 Y135.24 E16.73957
G1 X110.673 Y134.598 E16.80672
G1 X108.893 Y133.774 E16.87196
G1 X107.184 Y132.744 E16.93832
G1 X105.589 Y131.535 E17.00489
G1 X104.143 Y130.166 E17.07112
G1 X102.837 Y128.629 E17.1382
G1 X101.738 Y127.01 E17.20329
G1 X100.804 Y125.248 E17.26962
G1 X100.057 Y123.373 E17.33675
G1 X99.522 Y121.447 E17.40323
G1 X99.202 Y119.501 E17.46882
G1 X99.095 Y117.506 E17.53527
G1 X99.2 Y115.496 E17.60222
G1 X99.52 Y113.555 E17.66765
G1 X100.051 Y111.638 E17.73381
G1 X100.796 Y109.766 E17.80082
G1 X101.725 Y108.016 E17.86672
G1 X102.841 Y106.367 E17.93294
G1 X104.135 Y104.843 E17.99944
G1 X105.577 Y103.473 E18.06559
G1 X107.168 Y102.268 E18.13198
G1 X108.879 Y101.234 E18.19847
G1 X110.65 Y100.413 E18.26339
G1 X112.579 Y99.765 E18.33108
G1 X114.503 Y99.34 E18.39661
G1 X116.509 Y99.121 E18.46373
G1 X118.479 Y99.119 E18.52925
G1 X120.479 Y99.334 E18.59615
G1 X122.413 Y99.76 E18.66202
G1 X124.327 Y100.402 E18.72917
G1 X126.107 Y101.226 E18.7944
G1 X127.816 Y102.256 E18.86077
G1 X129.411 Y103.465 E18.92734
G1 X130.854 Y104.831 E18.99343
G1 X132.154 Y106.36 E19.06018
G1 X133.257 Y107.986 E19.12553
G1 X134.197 Y109.755 E19.19216
G1 X134.942 Y111.625 E19.25911
G1 X135.476 Y113.544 E19.32536
G1 X135.797 Y115.479 E19.3906
G1 X135.905 Y117.486 E19.45745
G1 X135.802 Y119.479 E19.52382
G1 X135.481 Y121.447 E19.59014
G1 X134.954 Y123.349 E19.65579
G1 X134.205 Y125.232 E19.72319
G1 X133.273 Y126.989 E19.78934
G1 X132.172 Y128.617 E19.85471
G1 X130.865 Y130.157 E19.92189
G1 X129.425 Y131.525 E19.98795
G1 X127.833 Y132.731 E20.05438
G1 X126.123 Y133.764 E20.12082
G1 X124.35 Y134.587 E20.18584
G1 X122.421 Y135.235 E20.25352
G1 X120.497 Y135.66 E20.31906
G1 X118.491 Y135.879 E20.38617
G1 X116.521 Y135.881 E20.45169
G1 F3000 E18.45169
G0 F6000 X116.507 Y136.16
G0 X117.153 Y136.061
G0 X117.156 Y137.934
G0 X117.253 Y123.53
G0 X117.153 Y125.384
G0 X117.143 Y125.304
G0 X117.126 Y125.584
G1 F3000 E20.45169
G1 F1200 X117.387 Y125.584 E20.46037
G1 X117.463 Y125.577 E20.46291
G1 X118.476 Y125.531 E20.49664
G1 X118.662 Y125.505 E20.50289
G1 X119.869 Y125.24 E20.54399
G1 X120.155 Y125.13 E20.55418
G1 X121.067 Y124.762 E20.58689
